src/lib/packages/icons/src/assets/filled/shopping-basket-star.svg

<svg width="24" height="24" viewBox="0 0 24 24" fill="none" xmlns="http://www.w3.org/2000/svg">
<path d="M19.078 12H4.92297C4.74497 12 4.60602 12.154 4.62402 12.331L5.23999 18.3C5.39999 19.83 5.98998 21 8.22998 21H15.79C17.99 21 18.63 19.83 18.77 18.3L19.376 12.33C19.394 12.154 19.256 12 19.078 12ZM14.899 15.471L13.819 16.519C13.74 16.596 13.704 16.706 13.723 16.814L13.97 18.249C14.02 18.54 13.714 18.762 13.452 18.625L12.156 17.947C12.059 17.896 11.943 17.896 11.845 17.947L10.55 18.625C10.288 18.762 9.98101 18.54 10.031 18.248L10.278 16.815C10.297 16.707 10.261 16.596 10.182 16.52L9.10205 15.472C8.90405 15.279 9.01299 14.943 9.28699 14.904L10.781 14.688C10.89 14.672 10.984 14.604 11.032 14.506L11.679 13.2C11.81 12.935 12.1889 12.935 12.3199 13.2L12.967 14.506C13.016 14.604 13.11 14.672 13.218 14.688L14.712 14.904C14.988 14.942 15.097 15.278 14.899 15.471ZM21 9.00001C21 10.104 20.104 11 19 11H5C3.896 11 3 10.104 3 9.00001C3 7.89601 3.896 7.00001 5 7.00001H6.72803L9.37695 2.61201C9.59095 2.25801 10.052 2.14301 10.406 2.35801C10.76 2.57301 10.875 3.03301 10.66 3.38801L8.479 7.00001H15.53L13.374 3.38401C13.162 3.02901 13.278 2.56801 13.635 2.35601C13.99 2.14501 14.451 2.26001 14.663 2.61701L17.277 7.00101H19C20.104 7.00001 21 7.89601 21 9.00001Z" fill="currentColor"/>
</svg>

<svg xmlns="http://www.w3.org/2000/svg" width="24" height="24" fill="none"><path fill="currentColor" d="M19.078 12H4.923a.3.3 0 0 0-.299.331L5.24 18.3c.16 1.53.75 2.7 2.99 2.7h7.56c2.2 0 2.84-1.17 2.98-2.7l.606-5.97a.3.3 0 0 0-.298-.33Zm-4.179 3.471-1.08 1.048a.331.331 0 0 0-.096.295l.247 1.435a.357.357 0 0 1-.518.376l-1.296-.678a.335.335 0 0 0-.311 0l-1.295.678a.358.358 0 0 1-.519-.377l.247-1.433a.33.33 0 0 0-.096-.295l-1.08-1.048a.333.333 0 0 1 .185-.568l1.494-.216a.333.333 0 0 0 .251-.182l.647-1.306a.358.358 0 0 1 .64 0l.648 1.306a.336.336 0 0 0 .251.182l1.494.216a.332.332 0 0 1 .187.567ZM21 9a2 2 0 0 1-2 2H5a2 2 0 0 1 0-4h1.728l2.649-4.388a.749.749 0 1 1 1.283.776L8.479 7h7.051l-2.156-3.616a.75.75 0 1 1 1.289-.767l2.614 4.384H19A2 2 0 0 1 21 9Z"/></svg>
